site/images/phone.svg

<svg viewBox="0 0 19.89 20.24" xmlns="http://www.w3.org/2000/svg"><path d="m14.61 20.24a6.76 6.76 0 0 1 -.72 0 15.94 15.94 0 0 1 -9.09-4.88 15.5 15.5 0 0 1 -4.8-9.01c-.31-3 1-5.35 3.54-6.24a2 2 0 0 1 2.46 1.05l1.2 2.6a2 2 0 0 1 -.39 2.24l-1.63 1.61a10.79 10.79 0 0 0 2.82 3.85 11 11 0 0 0  3.87 2.82l1.59-1.59a2 2 0 0 1 2.28-.37l3.05 1.53a2 2 0 0 1 1 2.31 5.24 5.24 0 0 1 -5.18 4.08zm-10.39-19.05a.7.7 0 0 0 -.23 0c-2 .71-3 2.58-2.76 5v0a14.48 14.48 0 0 0 4.42 8.27 15 15 0 0 0  8.35 4.54 4.11 4.11 0 0 0  4.67-3.18.79.79 0 0 0 -.41-.91l-3.05-1.53a.78.78 0 0 0 -.9.15l-2 2h-.27c-.18 0-1.84-.22-4.85-3.23s-3.25-4.7-3.25-4.87v-.26l2-2a .78.78 0 0 0  .16-.88l-1.2-2.6a.79.79 0 0 0 -.68-.5z" fill="#45feff"/></svg>

<svg xmlns="http://www.w3.org/2000/svg" viewBox="0 0 19.89 20.24"><defs><style>.cls-1{fill:#45feff;}</style></defs><title>phone</title><g id="Layer_2" data-name="Layer 2"><g id="Layer_1-2" data-name="Layer 1"><path class="cls-1" d="M14.61,20.24a6.76,6.76,0,0,1-.72,0A15.94,15.94,0,0,1,4.8,15.36,15.5,15.5,0,0,1,0,6.35c-.31-3,1-5.35,3.54-6.24A2,2,0,0,1,6,1.16l1.2,2.6A2,2,0,0,1,6.81,6L5.18,7.61A10.79,10.79,0,0,0,8,11.46a11,11,0,0,0,3.87,2.82l1.59-1.59a2,2,0,0,1,2.28-.37l3.05,1.53a2,2,0,0,1,1,2.31A5.24,5.24,0,0,1,14.61,20.24ZM4.22,1.19a.7.7,0,0,0-.23,0c-2,.71-3,2.58-2.76,5v0a14.48,14.48,0,0,0,4.42,8.27A15,15,0,0,0,14,19a4.11,4.11,0,0,0,4.67-3.18.79.79,0,0,0-.41-.91l-3.05-1.53a.78.78,0,0,0-.9.15l-2,2-.27,0c-.18,0-1.84-.22-4.85-3.23S3.94,7.6,3.94,7.43V7.17l2-2a.78.78,0,0,0,.16-.88l-1.2-2.6A.79.79,0,0,0,4.22,1.19Z"/></g></g></svg>
